X: 1
T: padstow may song (day)
O: Trad
M: 2/4
L: 1/8
Q:1/4=80
K: G
P: verse
D \|D2 EF|G2 A2|GG GF|E2 D2|EE FF|G2 DB,|A,3 D|
|ED GA|G2 FD|G>D GB|d2 cB|AB c2|B2 AF | G4-|G2 z :|
P: chorus
M: 3/4
L: 1/4
|: D|GGG|G2D|GAB|A2B|EFG|AEA|ABc| BAF|G2:|
